X: 14
T: London Hornpipe
R: hornpipe, reel
M: C|
L: 1/8
Z: 2010 John Chambers <jc:trillian.mit.edu>
B: 19th century tune book collected by W.A. Cocks.
F: http://www.asaplive.com/archive/browse_by_collection.asp
N: The asaplive.com web site is complex, and links to its files don't usually work.
K: A
((3EFG) |\
AEcA eca[ec] | fe^de fecA | AEcA dBge | begb ((3gfe) ((3dcB) |
AEcA ecae | fe^de Bdfa | bgeg daf^d | e2g2 e2 :|
|: (EF) |\
GABc dBfe | dcdc d2EF | GABc dBed | cBcB (c2cB) |
AGBA cBdc | edfe gegb | ((3aed) ((3cBA) EdBG | A2c2 A2 :|


%%sep 5 1 500

